X:40
T: Tochter als Faehnrich
N: Q1096B
O: Osteuropa, UdSSR, Karpato - Ukraine
N: Melodievergleich zu Q0096A, anderes Lied.
R: ???
M: 3/4
L: 1/4
K: G
D | G2A | B2B | cBA | G2
D | G2A | B2B | cBA | G2
G | B2B | A2B | AGE | D2
D | G2A | BAG | A2A | G2

@@@ Tune index: 1333
